src/icons/icons_set_01/036-citation-01.svg

<svg height="50" viewBox="0 0 50 50" width="50" xmlns="http://www.w3.org/2000/svg"><path d="m22.370325 9.93986607c.0050569-5.23607929 4.1529456-9.52917958 9.3857527-9.71433423 5.2328068-.18515465 9.6737517 3.80404328 10.0488735 9.02667054h.0350083s2.4505834 18.50440472-13.4156934 27.83412562c-1.1852822-1.0002381-3.1932601-3.6508691-3.1932601-3.6508691 2.3755654-6.4765416 7.6943315-9.3172178 2.0004761-15.0660863-3.0072383-1.7362297-4.8601685-4.944544-4.8611571-8.41700355zm-17.47415952 9.64729643c5.69135472 5.751369.37258869 8.5895446-2.00047619 15.0660863 0 0 2.00047619 2.6456298 3.19576071 3.6508691 15.8612756-9.3322215 13.4131929-27.8341256 13.4131929-27.8341256h-.0350084c-.3301966-4.62101222-3.8735555-8.36793173-8.4689425-8.95547046-4.59538694-.58753872-8.96747232 2.14735938-10.44967231 6.53664935-1.48219999 4.38929001.33683132 9.21483901 4.34764638 11.53349071z" transform="translate(3.995 5.745417)"/></svg>

<?xml version="1.0" encoding="UTF-8"?>
<svg width="50px" height="50px" viewBox="0 0 50 50" version="1.1" xmlns="http://www.w3.org/2000/svg" xmlns:xlink="http://www.w3.org/1999/xlink">
    <!-- Generator: Sketch 52.4 (67378) - http://www.bohemiancoding.com/sketch -->
    <title>036-citation-01</title>
    <desc>Created with Sketch.</desc>
    <g id="036-citation-01" stroke="none" stroke-width="1" fill="none" fill-rule="evenodd">
        <g id="Group" transform="translate(3.995000, 5.745417)" fill="#000000" fill-rule="nonzero">
            <g id="077-citation-01">
                <g id="ICONSET-01">
                    <g id="077-citation-01">
                        <path d="M22.370325,9.93986607 C22.3753819,4.70378678 26.5232706,0.410686494 31.7560777,0.225531843 C36.9888845,0.0403771933 41.4298294,4.02957512 41.8049512,9.25220238 L41.8399595,9.25220238 C41.8399595,9.25220238 44.2905429,27.7566071 28.4242661,37.086328 C27.2389839,36.0860899 25.231006,33.4354589 25.231006,33.4354589 C27.6065714,26.9589173 32.9253375,24.1182411 27.2314821,18.3693726 C24.2242438,16.6331429 22.3713136,13.4248286 22.370325,9.95236905 L22.370325,9.93986607 Z M4.89616548,19.5871625 C10.5875202,25.3385315 5.26875417,28.1767071 2.89568929,34.6532488 C2.89568929,34.6532488 4.89616548,37.2988786 6.09145,38.3041179 C21.9527256,28.9718964 19.5046429,10.4699923 19.5046429,10.4699923 L19.4696345,10.4699923 C19.1394379,5.84898008 15.596079,2.10206057 11.000692,1.51452184 C6.40530506,0.92698312 2.03321968,3.66188122 0.551019686,8.05117119 C-0.931180304,12.4404612 0.887851005,17.2660102 4.89866607,19.5846619 L4.89616548,19.5871625 Z" id="Shape"></path>
                    </g>
                </g>
            </g>
        </g>
    </g>
</svg>
